X:1
T:Highland Dance. JBut.454a, A
T:Highland Dance. JBut.454a, A
T:Clearly added in a different hand
C:Clearly added in a different hand
L:1/8
Q:1/2=100
M:4/4
K:D
V:1 treble 
V:1
 g | f2 A>A e2 d>e | f2 A>A dBBg | f2 A>A e2 d>e | fedB AAA :: g | feaf e2 de | fd g2 dBBg | %8
 fdag e2 de | fedB"^NB" AAA :| %10

